docs/img/phone.svg

<svg width="19" height="19" viewBox="0 0 19 19" fill="none" xmlns="http://www.w3.org/2000/svg">
<path d="M14.7122 10.2933C14.3212 9.90225 13.6892 9.90225 13.2982 10.2933L11.7042 11.8872C10.9652 11.6672 9.58622 11.1672 8.71222 10.2933C7.83822 9.41925 7.33822 8.04025 7.11822 7.30125L8.71222 5.70725C9.10322 5.31625 9.10322 4.68425 8.71222 4.29325L4.71222 0.29325C4.32122 -0.09775 3.68922 -0.09775 3.29822 0.29325L0.586217 3.00525C0.206217 3.38525 -0.00778346 3.90725 0.000216545 4.44025C0.0232165 5.86425 0.400217 10.8103 4.29822 14.7083C8.19622 18.6063 13.1422 18.9823 14.5672 19.0063C14.5722 19.0063 14.5902 19.0063 14.5952 19.0063C15.1232 19.0063 15.6222 18.7983 16.0002 18.4202L18.7122 15.7083C19.1032 15.3173 19.1032 14.6853 18.7122 14.2943L14.7122 10.2933ZM14.5852 17.0052C13.3372 16.9842 9.06722 16.6493 5.71222 13.2933C2.34622 9.92725 2.02022 5.64225 2.00022 4.41925L4.00522 2.41425L6.59122 5.00025L5.29822 6.29325C5.05922 6.53125 4.95722 6.87525 5.02622 7.20525C5.05022 7.32025 5.63722 10.0472 7.29722 11.7072C8.95722 13.3672 11.6842 13.9542 11.7992 13.9782C12.1322 14.0492 12.4732 13.9462 12.7112 13.7072L14.0052 12.4142L16.5912 15.0002L14.5852 17.0052Z" fill="#222222"/>
</svg>

<svg width="19" height="19" fill="none" xmlns="http://www.w3.org/2000/svg"><path d="M14.712 10.293a.999.999 0 0 0-1.414 0l-1.594 1.594c-.739-.22-2.118-.72-2.992-1.594-.874-.874-1.374-2.253-1.594-2.992l1.594-1.594a.999.999 0 0 0 0-1.414l-4-4a.999.999 0 0 0-1.414 0L.586 3.005c-.38.38-.594.902-.586 1.435.023 1.424.4 6.37 4.298 10.268 3.898 3.898 8.844 4.274 10.27 4.298h.027c.528 0 1.027-.208 1.405-.586l2.712-2.712a.999.999 0 0 0 0-1.414l-4-4Zm-.127 6.712c-1.248-.02-5.518-.356-8.873-3.712C2.346 9.927 2.02 5.643 2 4.42l2.005-2.005L6.591 5 5.298 6.293a1 1 0 0 0-.272.912c.024.115.611 2.842 2.271 4.502 1.66 1.66 4.387 2.247 4.502 2.271a.991.991 0 0 0 .912-.27l1.294-1.294L16.591 15l-2.006 2.005Z" fill="#222"/></svg>
